X:1
T:The Well-Tempered Clavier Part II Praeludium XIV
T:BWV 883
T:J. S. Bach
%%score { ( 1 4 ) | ( 2 3 5 ) }
L:1/8
Q:1/4=96
M:3/4
K:A
V:1 treble nm="Harp"
V:4 treble 
V:2 bass 
V:3 bass 
V:5 bass 
V:1
"^Andante" f c2 A/B/ (3c/B/A/(3B/A/G/ | A/B/A/G/ A/c/f/g/ (3a/g/f/(3g/f/^e/ | %2
 f/c^e/ f/ce/ f/c/f/g/ | a/=f/^f/a/ B/a/g/a/ (3b/a/g/(3a/g/f/ | ^e/^Bc/ f/Bc/ (3g/=B/c/(3d/c/B/ | %5
 A2- (3A/G/F/(3^E/F/G/ (3F/E/F/(3:2:2^dF/ | F3/2^E/4^D/4 (3E/C/D/(3E/F/G/ (3F/E/F/(3G/A/B/ | %7
 A/4G/4FA/4c/4 (3f/c/^d/(3^e/f/g/ (3a/g/f/(3g/f/=e/ | e/4^d/4e/f- f/e/d/a/ (3g/f/e/(3f/e/d/ | %9
 e/^d/c- c/d/c/=c/ ^c/e/A/G/ | A/^B/F/E/ F/B/c/^d/ (3e/d/c/(3d/c/B/ | c G2 E/F/ (3G/F/E/(3F/E/^D/ | %12
 E/F/E/^D/ E/G/c/^d/ (3e/=g/f/(3e/=d/c/ | (3B/^A/c/E- E/4F/4E/4^D/4E/E/- E/A/B/c/ | %14
 D/E/D/C/ D/F/B/c/ (3d/f/e/(3d/c/B/ | (3A/G/B/D- D/4E/4D/4C/4D/D/- D/G/A/B/ | %16
 C/D/C/B,/ C/E/A/B/ c2- | c/=G/F/E/ F/A/d/e/ f2- | f/A/G/F/ G/B/e/g/ b/d/c/B/ | %19
 c/f/e/^d/ e/c/B/A/ cB | C/E/A- A/E/A/B/ c/A/F/^d/ | e/B^d/ e/Bd/ e/B/^A/e/ | %22
 e/4d/4c/B- B/F/B/c/ d/B/G/^e/ | f/c^e/ f/ce/ f/c/^B/f/ | f/4e/4^d/c- c/G/c/d/ e/c/^A/=g/ | %25
 f/d/B/^A/ B/F/B/d/ f/d/^B/a/ | g/e/c/^B/ c/G/c/e/ g/^e/d/b/ | a/f^e/ f/dc/ c/^Bf/ | %28
[Q:1/4=72]"^Adagio" f!fermata!^e[Q:1/4=96]"^Andante" z4 | f c2 A/B/ (3c/B/A/(3B/A/G/ | %30
 A/B/A/G/ A/c/f/g/ (3a/g/f/(3g/f/^e/ | f/c^e/ f/ce/ f/d/c/^a/ | b/f^a/ b/fa/ (3b/=a/g/(3a/g/f/ | %33
 =g/df/ g/df/ ga | (3^e/f/g/(3f/e/^d/ (3c/B/c/(3=d/c/B/ (3A/B/c/(3B/A/G/ | F/^ef/ G/f=f/ _B/=e^d/ | %36
 (3^d/e/f/(3e/d/c/ (3^B/c/d/(3c/B/^A/ (3G/F/G/(3=A/G/F/ | (3^E/F/G/(3F/E/^D/{D} C2- C/E/4G/4B/d/ | %38
 (3c/^d/^e/(3f/=e/=d/ (3c/B/A/(3d/c/B/ (3A/G/F/(3G/F/^E/ | F4- F/^EF/ | %40
 d/^Bc/ ^E/=BA/ (3G/B/A/(3G/F/E/ | (3F/G/A/(3B/c/d/ CF- F/F^E/ | !fermata!F6 |] %43
V:2
[I:staff -1] z[I:staff +1] A,C F2 ^E | F C2 A,/B,/ (3C/B,/A,/(3B,/A,/G,/ | A,B, CG F^E | %3
 FC F,^E, F,B, |[I:staff -1] z[I:staff +1] G, A,F, ^E,2- | %5
 (3E,/^E,/F,/(3G,/F,/E,/ (3F,/G,/A,/(3B,/A,/G,/ A,2- | A,/G,/4F,/4G,- G,2[I:staff -1] z2 | %7
 z2 z2 z[I:staff +1] B, | A,>A, G,F, E,^D, | C,4- C,C, | F,[I:staff -1] z z2 z[I:staff +1] F,- | %11
 F,E,G, C2 ^B, | CG,- G,/F,/E,[I:staff -1] z[I:staff +1] E,- | E,C, F,4- | F,F, B,/F,F,/- F,<D,- | %15
 D,B,, E,4- | E,E, A,G, A,2- | A,A, DA,- A,/A,^D,/ | G,B, EB, G,2 | A,G, G,/A,B,/- B,/A,G,/ | %20
 A,2[I:staff -1] z2 z[I:staff +1] =C | B,A, =G,B, C2 | B,2[I:staff -1] z2 z[I:staff +1] D | %23
 CB, A,C ^D2 | C2[I:staff -1] z2[I:staff +1] C2- | CF, D,/B,,/D,/F,/ B,F, | CG, E,/C,/E,/G,/ CG, | %27
 F,G, A,G, F,G, | A,!fermata!G,[I:staff -1] z4 | z[I:staff +1] A, C F2 ^E | %30
 F C2 A,/B,/ (3C/B,/A,/(3B,/A,/G,/ | A,B, CB, A,=G, | F,E, F,C F,2 | B,D DD DD | %34
 C2[I:staff -1] z[I:staff +1] G, C2- | CC B,2[I:staff -1] z[I:staff +1] ^A, | ^B,C ^DG, ^A,B, | %37
 B,A, G,A, B,^E, | F,C, F,3 ^E, | %39
[I:staff -1] (3z/ E/D/(3C/D/E/ (3D/C/B,/(3^A,/B,/C/ B,[I:staff +1]=A, | G,A, B, F,2 E, | %41
[I:staff -1] z2 z G, A,B, | !fermata!^A,6 |] %43
V:3
 F,2- F,>G, A,C | F,6- | F,G, A,B, A,G, | F,E, _D,4 | C,6- | C,2 z2 z ^B,, | C,3 C, ^D,^E, | %7
 F,F,, A,,C, F,2- | F,^D, ^B,,2 z G,, | C,>B,, A,,G,, F,,2- | F,,G,, A,,F,, G,,2 | %11
 C,2- C,>^D, E,G, | C,2- C,>B,, ^A,,C, | F,,2 z C, ^A,,F,, | B,,3 D, B,,/D,/G,,/B,,/ | %15
 E,,2 z B,, G,,E,, | A,,2 z2 z/ E,/C,/A,,/ | D,3 F, ^D,B,, | E,4- E,E, | A,,B,, C,D, E,E, | %20
 A,>E, C,/A,,/C,/E,/ A,2 | =G,F, E,G, C,F, | B,>F, D,/B,,/D,/F,/ B,2 | A,G, F,A, ^D,G, | %24
 C>G, E,/C,/E,/G,/ z E, | D,2 z2 z ^D, | E,2 z2 z ^E, | F,2- F,E, ^D,=D, | %28
 !fermata!C,2 z (3B,,/C,/D,/ (3C,/B,,/A,,/(3B,,/A,,/G,,/ | F,, F,2- F,/G,/ A,C | F,6- | %31
 F,G, A,G, F,E, | D,C, D,E, D,C, | B,,B, B,B, B,B, | B,2 z ^E, F,C, | D,2- D,D, C,=G, | %36
 F,3 E,2 ^D, | C,^D, ^E,F, G,G,, | A,,3 B,, C,B,, | ^A,,F, B,,C, D,B,, | C,3 D, B,,C, | %41
 A,,G,, A,, z2 C,, | !fermata!F,,6 |] %43
V:4
 x6 | x6 | x6 | x6 | x6 | x6 | x6 | x6 | x6 | x6 | x6 | x6 | x6 | x6 | x6 | x6 | x6 | x6 | x6 | %19
 z4 c/E/B/D/ | x6 | x6 | x6 | x6 | x6 | x6 | x6 | z4 z/ =B3/2 | !fermata!c2 z4 | x6 | x6 | x6 | %32
 x6 | x6 | x6 | x6 | x6 | x6 | x6 | x6 | x6 | x6 | x6 |] %43
V:5
 x6 | x6 | x6 | x6 | x6 | x6 | x6 | x6 | x6 | x6 | x6 | x6 | x6 | x6 | x6 | x6 | x6 | x6 | x6 | %19
 x6 | x6 | x6 | x6 | x6 | x6 | x6 | x6 | x6 | x6 | x6 | x6 | x6 | x6 | x6 | x6 | x6 | x6 | x6 | %38
 x6 | x6 | ^E,F, G, z z2 | C,^E, (3E,/F,/=E,/(3D,/C,/B,,/ C,2- | !fermata!C,6 |] %43

